packages/foundations/assets/icons/functional/images/communication/speech_bubble_question_mark_16_filled.svg

<svg width="16" height="16" viewBox="0 0 16 16" fill="none" xmlns="http://www.w3.org/2000/svg">
<g clip-path="url(#clip0_2204_2320)">
<path fill-rule="evenodd" clip-rule="evenodd" d="M12.3293 1.60001C13.5372 1.60001 14.4 2.50573 14.4 3.59888V10.0015C14.4 11.0946 13.5058 12.0004 12.3921 12.0004H5.47453C5.23921 12.0004 5.03529 12.0628 4.8941 12.219L2.96474 14.171C2.46278 14.6707 1.59998 14.296 1.59998 13.5932V3.59888C1.59998 2.50573 2.50984 1.60001 3.62355 1.60001H12.3293ZM8.00002 8.70001C7.48823 8.70001 7.09998 9.0921 7.09998 9.59106C7.09998 10.0901 7.48823 10.5 8.00002 10.5C8.51172 10.5 8.89998 10.0901 8.89998 9.59106C8.89998 9.0921 8.51172 8.70001 8.00002 8.70001ZM8.19469 3.08787C7.47514 3.08787 6.68559 3.43618 6.3451 3.7115L6.89028 5.12647C7.23462 4.93566 7.67846 4.78598 8.06209 4.78598C8.50921 4.78598 8.62603 4.9893 8.62603 5.21515C8.62603 5.46407 8.48406 5.6272 8.28978 5.77665L7.85806 6.07868C7.52182 6.32357 7.20239 6.64585 7.20239 7.28891V7.90001H8.79808V7.28891C8.79423 7.07369 9.01407 6.9142 9.3984 6.57498C9.78273 6.23577 10.2098 5.76713 10.2098 4.91129C10.2098 3.80025 9.32995 3.08787 8.19469 3.08787Z" fill="#1A1C1F"/>
</g>
<defs>
<clipPath id="clip0_2204_2320">
<rect width="16" height="16" fill="white"/>
</clipPath>
</defs>
</svg>

<svg xmlns="http://www.w3.org/2000/svg" width="16" height="16" fill="none"><g clip-path="url(#a)"><path fill="#1A1C1F" fill-rule="evenodd" d="M12.33 1.6c1.207 0 2.07.906 2.07 1.999v6.403A2.007 2.007 0 0 1 12.392 12H5.475c-.236 0-.44.063-.58.219l-1.93 1.952c-.502.5-1.365.125-1.365-.578V3.6c0-1.093.91-1.999 2.024-1.999zM8 8.7c-.512 0-.9.392-.9.891 0 .5.388.909.9.909s.9-.41.9-.909A.88.88 0 0 0 8 8.7m.195-5.612c-.72 0-1.51.348-1.85.624l.545 1.414c.345-.19.788-.34 1.172-.34.447 0 .564.203.564.43 0 .248-.142.411-.336.56l-.432.303c-.336.245-.656.567-.656 1.21V7.9h1.596v-.611c-.004-.215.216-.375.6-.714.385-.34.812-.808.812-1.664 0-1.11-.88-1.823-2.015-1.823" clip-rule="evenodd"/></g><defs><clipPath id="a"><path fill="#fff" d="M0 0h16v16H0z"/></clipPath></defs></svg>
